X:67
T:Banshee's Wail Over the Mangle Pit -- Basic
M:6/8
L:1/16
R:Jig
K:A dor
"Am"c4 c2 B2{#c}c2B2|"Am"{c}A2G2E2 "G"G2A2B2|
"Am"c6 B2e2d2|"F" B2A2A2 "G"A4B2|
"Am"c4 c2 B2c2B2|{c}A2G2E2 G2A2B2|c2d2e2 dde2d2|B2A2A2 A4B2:|
|:"G"g2f2e2 "Am"a2g2e2|d2B2G2 G2B2d2|"G"g2f2e2 "A"a2g2e2|
"G"d2e2g2 "Em"a4b2|
"G"g2f2e2 "Am"a2g2e2|d2B2G2 G2B2d2|"F"c2d2e2 "G"dde2d2|"Am"B2A2A2 A4 g2:||
